X:1
T:Title
%%score { ( 1 4 ) | ( 2 3 ) }
L:1/8
M:6/4
K:Ab
V:1 treble nm="Grand Piano"
V:4 treble 
V:2 bass 
V:3 bass 
V:1
 z6 z4[Q:1/4=100] E2 | [CE]2 F2 [DG]2 [CA]4 [CB]2 | [DA]4 [DG]2 [DG]4 [DF]2 | %3
 [DE]4 [Ed]2 [Fd]4 [Ge]2 | [Fd]6 [Ec]4 c2 | [=Ec]4 [EG]2 [EG]2 A2 [GB]2 | [FA]4 [GB]2 [Ac]4 [Ac]2 | %7
 [F=d]2 c2 [AB]2 B2 c2 [Ad]2 | e4- [Ae]2 e4 E2 | c4 A2 d4 c2 | [=Dc]4 [A,DF]2 [B,DF]4 [CDA]2 | %11
 [B,DG]4 [A,DF]2 [G,EF]4 [B,DG]2 | [A,DF]6 [A,CE]4 [A,CE]2 | [A,DF]4 [A,F]2 [C=EG]4 [CEG]2 | %14
 [CFA]4 [CGB]2 [CAc]4 [A=d]2 | [Ae]4 [Ac]2 [=Ae]4 [Ac]2 |[M:5/4] B6 z4 |] %17
V:2
 z6 z4 C2 | z2 D2 E,2 A,4 E,2 | B,,4 E,2 B,4 A,2 | G,2 E,2 G,2 A,4 B,2 | A,,4 E,2 A,4 E2 | %5
 z6[K:treble] .C6[K:bass] | F,4[K:treble] C2 F4[K:bass] F,2 | %7
 B,,2- [B,,-E]2 [B,,-=D]2 [B,,-E]2 [B,,-C]2 [B,,B,]2 | z2 B,2[K:treble] C2 [DB]4[K:bass] [E,D]2 | %9
 [A,CE]4 [A,C]2 [F,=A,F]4 [F,_A,E]2 | [B,,A,]4 B,,2 B,,4 B,,2 | E,4 E,2 E,4 E,2 | A,,6 A,,4 A,,2 | %13
 D,4 D,2 C,4 B,2 | A,4 G,2 F,4 [=E,_C]2 | [E,C]4 [F,E]2 [F,C]4 [F,E]2 | %16
[M:5/4] [B,=DA]4 [E,_D]2 [A,C]4 |] %17
V:3
 x12 | .A,,6 z6 | x12 | x12 | x12 | C,4 G,2[K:treble] z2 F2[K:bass] C,2 | %6
 x4[K:treble] x6[K:bass] x2 | .B,6 z6 | E,12[K:treble][K:bass] | x12 | x12 | x12 | x12 | x12 | %14
 x12 | x12 |[M:5/4] x10 |] %17
V:4
 x12 | x12 | x12 | x12 | x12 | x12 | x12 | .A6 .A6 | .G6 z6 | x12 | x12 | x12 | x12 | x12 | x12 | %15
 x12 |[M:5/4] z4 G2 A4 |] %17

